X: 32541
T: Planxty Drew
R: jig
M: 6/8
K: Gdorian
G/A/|BAG Bcd|cdB AGF|GDG G2 A|BGG G2 G/A/|
BAG Bcd|cdB AGF|Ggg a/g/fd|cAF G2||
B/A/|GDG Bcd|Ggg gaf|gfd cBA|Ggg g2 f/g/|
af/g/a/f/ ge/f/g/e/|fd/e/f/d/ cA/B/c/A/|Ggg a/g/fd|cAF G2||

